icons/glyphs/glyph-rust.svg

<?xml version="1.0" encoding="UTF-8" standalone="no"?><svg height="16mm" viewBox="0 0 16 16" width="16mm" xmlns="http://www.w3.org/2000/svg"><sodipodi:namedview/><metadata><rdf:RDF><cc:Work><dc:format>image/svg+xml</dc:format><dc:type/><dc:title/></cc:Work></rdf:RDF></metadata><path d="m-.0000002 1.4564755v2.4532031h2.9092244v8.1814674h-2.9092244v2.440091s5.1725984.01374 8.0003634.01374v-2.454655h-2.909222v-3.2728899l3.658347-.021991c.218178-.00145.968772.3469351 1.6167988 1.5957199.307651.688758.843675 1.663343 1.111325 2.129551.314922.48875.910586 2.024105 1.526613 2.024105 1.322245-.01099 1.765902-.000729 2.995775-.000729v-2.778037c-.182553.127273-.527297.299654-.727308.325109-.877132.0055-1.228421-.482207-1.54116-1.117884-.480749-1.4888026-1.346243-2.7193902-2.095368-3.3819782.92877-.6618459 2.878675-.4865779 2.931041-2.9586934-.048-2.2073714-1.502612-3.1739572-3.286693-3.176871-3.7710808.019242-7.5494328-.0007148-11.2783296-.0007148zm5.0911414 2.4532031h4.168915c.580391 0 1.3331498.4363834 1.3331498 1.2553274 0 .6800434-.551297 1.1993328-1.4386078 1.1993328h-4.063457z" fill="#d0d0d0" stroke-width=".727306"/></svg>

<?xml version="1.0" encoding="UTF-8" standalone="no"?>
<!-- Created with Inkscape (http://www.inkscape.org/) -->

<svg
   xmlns:dc="http://purl.org/dc/elements/1.1/"
   xmlns:cc="http://creativecommons.org/ns#"
   xmlns:rdf="http://www.w3.org/1999/02/22-rdf-syntax-ns#"
   xmlns:svg="http://www.w3.org/2000/svg"
   xmlns="http://www.w3.org/2000/svg"
   xmlns:sodipodi="http://sodipodi.sourceforge.net/DTD/sodipodi-0.dtd"
   xmlns:inkscape="http://www.inkscape.org/namespaces/inkscape"
   width="16mm"
   height="16mm"
   viewBox="0 0 16 16"
   version="1.1"
   id="svg8"
   inkscape:version="0.92+devel (bc9c9b4297, 2017-07-16, custom)"
   sodipodi:docname="glyph-rust.svg">
  <defs
     id="defs2" />
  <sodipodi:namedview
     id="base"
     pagecolor="#002466"
     bordercolor="#ffffff"
     borderopacity="0.38039216"
     inkscape:pageopacity="1"
     inkscape:pageshadow="2"
     inkscape:zoom="14.337109"
     inkscape:cx="30.23622"
     inkscape:cy="30.23622"
     inkscape:document-units="mm"
     inkscape:current-layer="svg8"
     inkscape:document-rotation="0"
     showgrid="false"
     inkscape:showpageshadow="false"
     borderlayer="true"
     inkscape:window-width="1920"
     inkscape:window-height="1051"
     inkscape:window-x="0"
     inkscape:window-y="0"
     inkscape:window-maximized="1" />
  <metadata
     id="metadata5">
    <rdf:RDF>
      <cc:Work
         rdf:about="">
        <dc:format>image/svg+xml</dc:format>
        <dc:type
           rdf:resource="http://purl.org/dc/dcmitype/StillImage" />
        <dc:title></dc:title>
      </cc:Work>
    </rdf:RDF>
  </metadata>
  <path
     inkscape:connector-curvature="0"
     fill="#e8d9eb"
     d="M -2e-7,1.4564755 V 3.9096786 H 2.9092242 V 12.091146 H -2e-7 v 2.440091 c 0,0 5.1725984,0.01374 8.0003634,0.01374 V 12.090322 H 5.0911412 V 8.8174321 l 3.658347,-0.021991 c 0.218178,-0.00145 0.968772,0.3469351 1.6167988,1.5957199 0.307651,0.688758 0.843675,1.663343 1.111325,2.129551 0.314922,0.48875 0.910586,2.024105 1.526613,2.024105 1.322245,-0.01099 1.765902,-7.29e-4 2.995775,-7.29e-4 v -2.778037 c -0.182553,0.127273 -0.527297,0.299654 -0.727308,0.325109 -0.877132,0.0055 -1.228421,-0.482207 -1.54116,-1.117884 C 13.250783,9.4844734 12.385289,8.2538858 11.636164,7.5912978 12.564934,6.9294519 14.514839,7.1047199 14.567205,4.6326044 14.519205,2.425233 13.064593,1.4586472 11.280512,1.4557334 7.5094312,1.4749754 3.7310792,1.4550186 0.0021824,1.4550186 Z m 5.0911414,2.4532031 h 4.168915 c 0.580391,0 1.3331498,0.4363834 1.3331498,1.2553274 0,0.6800434 -0.551297,1.1993328 -1.4386078,1.1993328 h -4.063457 z"
     id="path33"
     style="fill:#d0d0d0;stroke-width:0.72730565"
     inkscape:label="#" />
</svg>
